X: 29
T:Hut on Staffin Island
M:C|
L:1/8
Q:200
C:Phil Cunningham
S:THSP
R:reel
N:
K:D
"D"A,B,DE D2DE|FDFA dAcA|"G"~B3c BAFD|"A"E2EF EDB,A,|
"D"A,B,DE D2DE|FDFA dAcA|"G"~B3c BAFD
|1 "A"E2FE "D"D2DB,:|2 "A"E2FE "D"D2FA||
"D"d2dc d2ed|"A"cBcd c2BA|"G"B2BA B2dB|"D"AFEF D2FA|
d2dc d2ed|"A"cBcd c2BA|"G"B2BA B2dB|"D"AFEF D2FA|
d2dc d2ed|"A"cBcd c2BA|"G"B2BA B2dB|"D"AFEF D2"A"B,2|
"D"A,B,DE D2DE|FDFA dAcA|"G"~B3c BAFD|"A"E2FE "D"D3B,|]
